X: 26
M:C|
L:1/8
K:Bb
ud/e>"0"=e|g>fd>B F>Bd>b|a>ge>c =E>Gc>B|\
g>fd>B F>Bd>b|a>ge>c =E>Gc>G|\
|:u=B/c>_B|A>cf>a "4"c'>"0"AB>A|A>c"0"=e>g b>ag>f|\
(3"0"=e"3"ba (3gfe d>c=B>c|d>cA>F C>=Bc>_B|
(3"0"=e"4"d'"3"c' (3"2"b"3"a"2"g (3"1"f"0"ed (3cBG|\
(3FAc (3fa"1"c' "4"f'z/:|


